assets/icons/18px/outline/macintosh-18px.svg

<svg fill="none" height="18" width="18" xmlns="http://www.w3.org/2000/svg"><g stroke="#fff"><path d="m4 4.5c0-.943 0-1.414.293-1.707s.764-.293 1.707-.293h6c.943 0 1.414 0 1.707.293s.293.764.293 1.707v7c0 .943 0 1.414-.293 1.707s-.764.293-1.707.293h-6c-.943 0-1.414 0-1.707-.293s-.293-.764-.293-1.707z"/><path d="m6 4.7c0-.094 0-.141.03-.17.029-.03.076-.03.17-.03h5.6c.094 0 .141 0 .17.03.03.029.03.076.03.17v3.6c0 .094 0 .141-.03.17-.029.03-.076.03-.17.03h-5.6c-.094 0-.141 0-.17-.03-.03-.028-.03-.075-.03-.17z" fill="#fff"/><path d="m5 13.5h8c0 .943 0 1.414-.293 1.707s-.764.293-1.707.293h-4c-.943 0-1.414 0-1.707-.293s-.293-.764-.293-1.707z"/><path d="m9 11h3" stroke-linecap="round" stroke-linejoin="round" stroke-width=".75"/></g><path d="m6.5 11a.5.5 0 1 1 -1 0 .5.5 0 0 1 1 0z" fill="#fff"/></svg>

<svg fill="none" height="18" width="18" xmlns="http://www.w3.org/2000/svg"><g stroke="currentColor"><path d="M4 4.5c0-.943 0-1.414.293-1.707S5.057 2.5 6 2.5h6c.943 0 1.414 0 1.707.293S14 3.557 14 4.5v7c0 .943 0 1.414-.293 1.707s-.764.293-1.707.293H6c-.943 0-1.414 0-1.707-.293S4 12.443 4 11.5z"/><path d="M6 4.7c0-.094 0-.141.03-.17.029-.03.076-.03.17-.03h5.6c.094 0 .141 0 .17.03.03.029.03.076.03.17v3.6c0 .094 0 .141-.03.17-.029.03-.076.03-.17.03H6.2c-.094 0-.141 0-.17-.03C6 8.442 6 8.395 6 8.3z" fill="currentColor"/><path d="M5 13.5h8c0 .943 0 1.414-.293 1.707s-.764.293-1.707.293H7c-.943 0-1.414 0-1.707-.293S5 14.443 5 13.5z"/><path d="M9 11h3" stroke-linecap="round" stroke-linejoin="round" stroke-width=".75"/></g><path d="M6.5 11a.5.5 0 1 1-1 0 .5.5 0 0 1 1 0z" fill="currentColor"/></svg>
